src/icons/print.svg

<?xml version="1.0" encoding="UTF-8"?>
<svg width="16px" height="16px" viewBox="0 0 16 16" version="1.1" xmlns="http://www.w3.org/2000/svg" xmlns:xlink="http://www.w3.org/1999/xlink">
    <!-- Generator: Sketch 47.1 (45422) - http://www.bohemiancoding.com/sketch -->
    <title>Icons/Print</title>
    <desc>Created with Sketch.</desc>
    <defs></defs>
    <g id="Symbols" stroke="none" stroke-width="1" fill="none" fill-rule="evenodd">
        <g id="Icons/Print" fill="#000000">
            <path d="M3,0 L13,0 C13.5522847,-1.01453063e-16 14,0.44771525 14,1 L14,5 L2,5 L2,1 C2,0.44771525 2.44771525,1.01453063e-16 3,0 Z M4,2 L4,5 L12,5 L12,2 L4,2 Z" id="Combined-Shape"></path>
            <path d="M3,11 L13,11 C13.5522847,11 14,11.4477153 14,12 L14,16 L2,16 L2,12 C2,11.4477153 2.44771525,11 3,11 Z M4,13 L4,16 L12,16 L12,13 L4,13 Z" id="Combined-Shape-Copy" transform="translate(8.000000, 13.500000) scale(1, -1) translate(-8.000000, -13.500000) "></path>
            <path d="M1,4 L15,4 C15.5522847,4 16,4.44771525 16,5 L16,11 C16,11.5522847 15.5522847,12 15,12 L1,12 C0.44771525,12 6.76353751e-17,11.5522847 0,11 L0,5 C-6.76353751e-17,4.44771525 0.44771525,4 1,4 Z M4,9 L4,12 L12,12 L12,9 L4,9 Z M11,6 L11,7 L12,7 L12,6 L11,6 Z" id="Combined-Shape"></path>
            <rect id="Rectangle-6" x="5" y="12" width="4" height="1"></rect>
            <rect id="Rectangle-6-Copy" x="5" y="10" width="6" height="1"></rect>
        </g>
    </g>
</svg>

<svg viewBox="0 0 16 16" xmlns="http://www.w3.org/2000/svg"><title>Icons/Print</title><g fill-rule="evenodd"><path d="M3 0h10a1 1 0 0 1 1 1v4H2V1a1 1 0 0 1 1-1zm1 2v3h8V2H4zM3 16h10a1 1 0 0 0 1-1v-4H2v4a1 1 0 0 0 1 1zm1-2v-3h8v3H4z"/><path d="M1 4h14a1 1 0 0 1 1 1v6a1 1 0 0 1-1 1H1a1 1 0 0 1-1-1V5a1 1 0 0 1 1-1zm3 5v3h8V9H4zm7-3v1h1V6h-1zm-6 6h4v1H5z"/><path d="M5 10h6v1H5z"/></g></svg>
